app/dist/common/images/civista-bancshares.svg

<svg height="18" viewBox="0 0 18 18" width="18" xmlns="http://www.w3.org/2000/svg"><path d="m0 0h18v18h-18z" fill="#f0f3fa"/><path d="m8.02 9-4.02-4.69 2.1 4.69z" fill="#ee8721"/><path d="m9.27 9 4.73-5-2.32 5h-2.4z" fill="#3c4d9c"/><path d="m8.02 9-4.02 4.69 2.1-4.69z" fill="#f8ad40"/><path d="m9.27 9 4.73 5-2.31-5h-2.4zm.01 0-4.74-5 4.74 2.48 4.72-2.48z" fill="#1c1666"/><path d="m9.28 9-4.74 5 4.74-2.48 4.72 2.48z" fill="#3c4d9c"/></svg>

<!-- by TradingView --><svg width="18" height="18" viewBox="0 0 18 18" xmlns="http://www.w3.org/2000/svg"><path fill="#F0F3FA" d="M0 0h18v18H0z"/><path d="M8.02 9 4 4.31 6.1 9h1.92Z" fill="#EE8721"/><path d="M9.27 9 14 4l-2.32 5h-2.4Z" fill="#3C4D9C"/><path d="M8.02 9 4 13.69 6.1 9h1.92Z" fill="#F8AD40"/><path d="M9.27 9 14 14l-2.31-5h-2.4ZM9.28 9 4.54 4l4.74 2.48L14 4 9.28 9Z" fill="#1C1666"/><path d="m9.28 9-4.74 5 4.74-2.48L14 14 9.28 9Z" fill="#3C4D9C"/></svg>
